X:1
T:When I was a Fair Maid
M:2/2
L:1/4
K:D
 A| d2 d3/2 d/2| d2 d3/2 d/2| e2 B B| B3 e| e e e3/2 e/2| e2e/2-d/2 c|\
 c e A3/2 A/2| A2 z A| f g/2 a/2- a a| f/2- e3/2 e3/2 f/2| g3/2 g/2 B B|\
 A d/2 d/2- d3/2 f/2| e2 d c| d2 d3/2 d/2| e2 e e|c/2-B/2 A2 A/2A/2|\
 f- g a a| f/2- e3/2 e3/2 f/2| g3/2 g/2 B B| A d/2 d/2- d3/2 f/2| e2 d c|\
 d4-| d2 z||

